X:3
T:Any privation but this
T:Creach na Ciadainn
R:Air
S:Simon Fraser Collection
N:No.85
O:Scottish
M:3/4
L:1/8
K:G
G>=F|E2 Dz c2|B2 dz g>e|d2 Bz d>B|A2 Gz G>=F|E2 Dz c2|B2 dz g>e|
D2 Bz d>B|A2 Gz||G>A|B2 Bz c>B|A2 Gz D>G|A2 Gz =f>g|a2 gz g>=f|
e2 dz B>c|d2 Bz B>c|d2 g2 d>B|A2 Gz||

